!!!COM: Chopin, Fr&egrave;d&egrave;ric
!!!OTL: Waltz in A minor
!!!SCT: Op. 34/2
**kern	**kern
*staff2	*staff1
*clefF4	*clefG2
*k[]	*k[]
*M3/4	*M3/4
=1-	=1-
*^	*
(2E/	[2.AA\	4r
.	.	(4c/ 4e/
8D/L	.	4c/) 4a/
8E/J	.	.
=2	=2	=2
2F/	2.AA\_	4r
.	.	(4B/ 4d/
8G/L	.	4B/) 4a/
8F/J)	.	.
=3	=3	=3
(2E/	2.AA\_	4r
.	.	(4c/ 4e/
8D/L	.	4c/) 4a/
8E/J	.	.
=4	=4	=4
2F/	2.AA\]	4r
.	.	(4B/ 4d/
8G/L	.	4B/) 4a/
8F/J)	.	.
*v	*v	*
=5	=5
2.r	4r
.	(4c/ 4e/
.	4c/) 4a/
=6	=6
*^	*
2c/	[2.E\	4r
.	.	(4d#/ 4f#/
8B/L	.	4d#/) 4a/
8A/J	.	.
*v	*v	*
=7	=7
!!linebreak:original
*^	*
4B/	2.E\_	4r
8c/L	.	(4dn/ 4e/
8B/	.	.
8A#/	.	4d/) 4g#/
8B/J	.	.
=8	=8	=8
2e/	2E\]	4r
.	.	(4d/ 4g#/ 4cc/
4E/	4E\	4d/) 4g#/ 4b/
*v	*v	*
=9	=9
!!linebreak:original
*^	*
(2E/	[2.AA\	4r
.	.	(4c/ 4e/
8D/L	.	4c/) 4a/
8E/J	.	.
=10	=10	=10
2F/	2.AA\_	4r
.	.	(4B/ 4d/
8G/L	.	4B/) 4a/
8F/J)	.	.
=11	=11	=11
(2E/	2.AA\_	4r
.	.	(4c/ 4e/
8D/L	.	4c/) 4a/
8E/J	.	.
=12	=12	=12
2F/	2.AA\]	4r
.	.	(4B/ 4d/
8G/L	.	4B/) 4a/
8F/J)	.	.
*v	*v	*
=13	=13
2.r	4r
.	(4c/ 4e/
.	4c/) 4a/
=14	=14
*^	*
2c/	[2.E\	4r
.	.	(4d#/ 4f#/
8B/L	.	4d#/) 4a/
8A/J	.	.
=15	=15	=15
2B/	2.E\]	4r
.	.	(4dn/ 4e/
8c/L	.	4d/) 4g#/
8B/J	.	.
=16	=16	=16
4A/	4A\	4c/ 4a/
*v	*v	*
4r	4r
4r	4e/
=17	=17
!!pagebreak:original
4AA/	(4ee\
4E\ 4c\	4.a/
4E\ 4c\	.
.	8b\)
=18	=18
!!linebreak:original
4BB/	4r
4E\ 4d\	(4a/
4E\ 4d\	4g#/)
=19	=19
4BB/	(4ff\
4F\ 4G#\ 4d\	4.b\
4F\ 4G#\ 4d\	.
.	8cc\)
=20	=20
4C/	4r
4F\ 4A\ 4f\	(4b\
4F\ 4A\ 4f\	4a/)
=21	=21
4C#/	(4.aa\
4Gn\ 4A\ 4f\	.
.	8gg\
4G\ 4A\ 4e\	12gg\L
.	12ff\
.	12ee\J
=22	=22
*^	*
4r	2.D\	8gg\L
.	.	8ff\
4F/ 4A/ 4e/	.	8a\
.	.	8b\
4F/ 4A/ 4d/	.	8cc\
.	.	8dd\J
=23	=23	=23
4r	2F\	8ee/L
.	.	8dd/
[4A/	.	8d/
.	.	8a/
4A/_	[4d/	8cc/
.	.	8b/J
=24	=24	=24
*	*^	*
(4A/]	2E\	2d/]	2.r
4G#/)	.	.	.
*v	*v	*v	*
4r	.
=25	=25
!!linebreak:original
4AA/	2.r
4E\ 4c\	.
4E\ 4c\	.
=26	=26
.	(bq/
4BB/	4a/)
4E\ 4d\	4g#/)
4E\ 4d\	(4g#/
=27	=27
4BB/	8f\L
.	8ff\
4F\ 4G#\ 4d\	12a#\
.	12b\
.	12cc\
4F\ 4G#\ 4d\	12b\
.	12dd\
.	12cc\J
=28	=28
4C/	4b\
4F\ 4A\ 4f\	4a/)
4F\ 4A\ 4f\	4a/
=29	=29
*^	*^
4r	2.C#\	(2.aa/	4.aa\
4G/ 4A/ 4e/	.	.	.
.	.	.	8gg\L
4G/ 4A/ 4e/	.	.	8ff\
.	.	.	8ee\J
=30	=30	=30	=30
4r	2.D\	2.aa/	4.gg\
4F/ 4A/ 4d/	.	.	.
.	.	.	8ff\L
4F/ 4A/ 4d/	.	.	8ee\
.	.	.	8dd\J
=31	=31	=31	=31
4r	2.E\	2.aa/	4.ff\
4A/ 4c#/ 4g/	.	.	.
.	.	.	8ee\L
4A/ 4c#/ 4g/	.	.	8dd\
.	.	.	8cc#\J
*v	*v	*	*
*	*v	*v
=32	=32
!!pagebreak:original
*^	*^
4r	2F\	2.aa/	8ee\L
.	.	.	24dd\L
.	.	.	24ee\
.	.	.	24dd\J
4A/ 4d/ 4a/	.	.	8cc#\
.	.	.	8dd\
*v	*v	*	*
4r	.	8ee\
.	.	8ff\J)
=33	=33	=33
4GG#/	(2.ee/	4.ee\
4E\ 4B\ 4d\	.	.
.	.	8dd\L
4E\ 4B\ 4d\	.	8ccn\
.	.	8b\J
=34	=34	=34
4AA/	2.ee/	4.dd\
4E\ 4c\	.	.
.	.	8cc\L
4E\ 4c\	.	8b\
.	.	8a\J
=35	=35	=35
4EE/	2.ee/	4.cc\
4E\ 4G#\ 4d\	.	.
.	.	8e\L
4E\ 4G#\ 4d\	.	8cc\
.	.	8b\J
=36	=36	=36
*^	*	*
4r	2AA\	4a/)	4a\
*	*	*v	*v
4E/ 4c/	.	4r
*v	*v	*
4r	4a^/
=37	=37
4BB/	(4a/
(8f\L	8g\L
8G\	8b\
8A\	8dd\
8G\J)	[8ff\J
=38	=38
4C/	4ff\] 4aa\
4G\ 4e\	4ee\) 4gg\
4G\ 4e\	(4ee\ 4gg\
=39	=39
!!linebreak:original
4GG/	(4g/)
(8D\L	8f#\L
8G\	8fn\
8A\	8ee\
8B\J)	[8dd\J
=40	=40
4C/	4f\ 4dd\]
4G\ 4c\	4e/) 4cc/
4A\ 4c\	(4e/ 4cc/
=41	=41
4EE/	(4f/)
8d\L	8e/L
8E\	8g#/
8F\	8b/
8E\J	[8dd/J
=42	=42
4AA/	4dd\] 4ff\
4E\ 4A\ 4c\	4cc\) 4ee\
4E\ 4A\ 4c\	(4cc\ 4ee\
=43	=43
4EE/	(4e/)
(8BB\L	8d#/L
8E\	8dn/
8F#\	8cc/
8G#\J)	[8b/J
=44	=44
4AA/	4d/ 4b/]
4E\ 4A\	4c/) 4a/
4D\ 4Fn\	4c^/ 4a^/
=45	=45
4BB/	(4B/ 4a/
(8f\L	8gn\L
8G\	8b\
8A\	8dd\
8G\J)	[8ff\J
=46	=46
!!linebreak:original
4C/	4ff\] 4aa\
4G\ 4e\	4ee\) 4gg\
4G\ 4e\	(4ee\ 4gg\
=47	=47
4GG/	(4g/)
(8D\L	8f#\L
8G\	8fn\
8A\	8ee\
8B\J)	[8dd\J
=48	=48
4C/	4f\ 4dd\]
4G\ 4c\	4e/) 4cc/
4A\ 4c\	(4e/ 4cc/
=49	=49
4EE/	(4f/)
8d\L	8e/L
8E\	8g#/
8F\	8b/
8E\J	[8dd/J
=50	=50
4AA/	4dd\] 4ff\
4E\ 4A\ 4c\	4cc\) 4ee\
4E\ 4A\ 4c\	(4cc\ 4ee\
=51	=51
(4EE/	(4e/)
4BB/	8d#/L
.	8dn/
4G#\	8cc/
.	8b/J
=52	=52
4d\	8a\L
.	8g#\
4b\)	8ff\
.	8ee\
4r	8dd#\
.	8ddn\J)
!!pagebreak:original
=53||	=53||
!!pagebreak:original
*k[f#c#g#]	*k[f#c#g#]
4AA/	(2.cc#\
4E\ 4c#\	.
4E\ 4Gn\ 4c#\	.
=54	=54
4D\	2b\
4F#\ 4d\	.
4F#\ 4B\ 4d\	4a/
=55	=55
*^	*
.	.	(32g#q/LLL
.	.	32aq/JJJ
4r	(2E\	4g#/)
2B/ 2d/	.	8f##/L
.	.	8g#/
.	4E#\)	8a/
.	.	8b/J
=56	=56	=56
4r	2.F#\	2.a/)
4A/ 4c#/	.	.
4A/ 4c#/	.	.
=57	=57	=57
4r	(2En\	(2.b\
4G#/ 4B/ 4e/	.	.
4r	4D\)	.
*v	*v	*
=58	=58
4C#/	2cc#\
4G#\ 4B\ 4e#\	.
4F#\ 4A\ 4f#\	4a/
=59	=59
*^	*
.	.	(32f#q/LLL
.	.	32g#q/JJJ
4r	2D\	4f#/)
4F#/ 4B/ 4d/	.	8e#/L
.	.	8f#/
*v	*v	*
4BB/	8een/
.	8dd/J
=60	=60
!!linebreak:original
*^	*
4r	2.E\	2b\
4G#/ 4d/ 4f#/	.	.
4G#/ 4d/ 4e/	.	4b#\)
*v	*v	*
=61	=61
4AA/	(2.cc#\
4E\ 4A\ 4c#\	.
4E\ 4A\ 4c#\	.
=62	=62
*^	*
4r	2.D\	2b\
4F#/ 4B/	.	.
4F#/ 4B/	.	4a/
=63	=63	=63
.	.	(32g#q/LLL
.	.	32aq/JJJ
4r	2.E\	4g#/)
4B/ 4d/	.	8f##/L
.	.	8g#/
4B/ 4d/	.	8a/
.	.	8b/J
=64	=64	=64
4r	(2Fn\	2.a/)
2A/ 2cn/	.	.
.	4D#\)	.
*v	*v	*
=65	=65
4E\	(8e/L
.	8a/
4c#\ 4a\	8b/
.	8cc#/
4r	8dd/
.	8ee/J
=66	=66
2.r	8ff#\L
.	8ddd\
.	8ccc#\
.	8ee\
.	8cc#\
.	8aa\J
=67	=67
!!linebreak:original
4EE/	8ff#\L
.	8a\
*	*^
4E\ 4G#\ 4d\	8f#\	4.f#/
.	8dd\	.
4E\ 4G#\ 4d\	8cc#\	.
*	*v	*v
.	8e\J
=68	=68
2r	2c#/) 2a/
4r	4cn/
=69	=69||
*k[]	*k[]
4AA/	(2.cc\
4E\ 4A\ 4c\	.
4E\ 4A\ 4c\	.
=70	=70
4D\	2b-\
4F\ 4B-\ 4d\	.
4F\ 4B-\ 4d\	4a/
=71	=71
*^	*
.	.	(32g#q/LLL
.	.	32aq/JJJ
4r	2.E\	4g#/)
4Bn/ 4d/	.	8f##/L
.	.	8g#/
4B/ 4d/	.	8a/
.	.	8b/J
=72	=72	=72
4r	2.F\	2.a/)
4A/ 4c/	.	.
4A/ 4c/	.	.
*v	*v	*
=73	=73
!!pagebreak:original
*^	*
4r	(2E\	(2.b\
4G#/ 4B/ 4e/	.	.
4r	4D\)	.
=74	=74	=74
4r	2.C\	2cc\
4E/ 4A/ 4e/	.	.
4E/ 4A/ 4e/	.	4a/
=75	=75	=75
.	.	(32fq/LLL
.	.	32gq/JJJ
4r	2.D\	4f/)
4F/ 4B-/ 4d/	.	8e/L
.	.	8f/
4F/ 4B-/ 4d/	.	8ee/
.	.	8dd/J
=76	=76	=76
4r	2.E\	2.b\)
4G#/ 4d/ 4f/	.	.
4G#/ 4d/ 4e/	.	.
*v	*v	*
=77	=77
4AA/	(2.cc\
4E\ 4A\ 4c\	.
4E\ 4A\ 4c\	.
=78	=78
*^	*
4r	2.D\	2b-\
4F/ 4B-/	.	.
4F/ 4B-/	.	4a/
=79	=79	=79
.	.	(32g#q/LLL
.	.	32aq/JJJ
4r	2.E\	4g#/)
4Bn/ 4d/	.	8f##/L
.	.	8g#/
4B/ 4d/	.	8a/
.	.	8b/J
=80	=80	=80
4r	(2F\	2.a/)
2A/ 2c/	.	.
.	4D#\)	.
*v	*v	*
=81	=81
!!linebreak:original
4E\	(8e/L
.	8a/
4c\ 4a\	8b/
.	8cc/
4r	8dd/
.	8ee/J
=82	=82
2.r	8ff\L
.	8ddd\
.	8ccc\
.	8ee\
.	8cc\
.	8aa\J
=83	=83
4EE/	8ff\L
.	8a\
*	*^
4E\ 4G#\ 4d\	8f\	4.f/
.	8dd\	.
4E\ 4G#\ 4d\	8cc\	.
*	*v	*v
.	8e\J
=84	=84
*^	*
4r	2AA\	4c/) 4a/
4E/ 4A/	.	4r
*v	*v	*
4r	4e/
=85	=85
4AA/	(4ee\
4E\ 4c\	4.a/
4E\ 4c\	.
.	8b\)
=86	=86
4BB/	4r
4E\ 4d\	(4a/
4E\ 4d\	4g#/)
=87	=87
4BB/	(4ff\
4F\ 4G#\ 4d\	4.b\
4F\ 4G#\ 4d\	.
.	8cc\)
=88	=88
!!linebreak:original
4C/	4r
4F\ 4A\ 4f\	(4b\
4F\ 4A\ 4f\	4a/)
=89	=89
4C#/	(4.aa\
4Gn\ 4A\ 4f\	.
.	8gg\
4G\ 4A\ 4e\	12gg\L
.	12ff\
.	12ee\J
=90	=90
*^	*
4r	2.D\	8gg\L
.	.	8ff\
4F/ 4A/ 4e/	.	8a\
.	.	8b\
4F/ 4A/ 4d/	.	8cc\
.	.	8dd\J
=91	=91	=91
4r	2F\	8ee/L
.	.	8dd/
[4A/	.	8d/
.	.	8a/
4A/_	[4d/	8cc/
.	.	8b/J
*v	*v	*
=92	=92
*^	*
*	*^	*
(4A/]	2E\	2d/]	2.r
*	*v	*v	*
4G#/)	.	.
*v	*v	*
4r	.
=93	=93
4AA/	2.r
4E\ 4c\	.
4E\ 4c\	.
=94	=94
!!pagebreak:original
.	(bq/
4BB/	4a/)
4E\ 4d\	4g#/)
4E\ 4d\	(4g#/
=95	=95
4BB/	8f\L
.	8ff\
4F\ 4G#\ 4d\	12a#\
.	12b\
.	12cc\
4F\ 4G#\ 4d\	12b\
.	12dd\
.	12cc\J
=96	=96
4C/	4b\
4F\ 4A\ 4f\	4a/)
4F\ 4A\ 4f\	4a/
=97	=97
*^	*^
4r	2.C#\	(2.aa/	4.aa\
4G/ 4A/ 4e/	.	.	.
.	.	.	8gg\L
4G/ 4A/ 4e/	.	.	8ff\
.	.	.	8ee\J
=98	=98	=98	=98
4r	2.D\	2.aa/	4.gg\
4F/ 4A/ 4d/	.	.	.
.	.	.	8ff\L
4F/ 4A/ 4d/	.	.	8ee\
.	.	.	8dd\J
=99	=99	=99	=99
4r	2.E\	2.aa/	4.ff\
4A/ 4c#/ 4g/	.	.	.
.	.	.	8ee\L
4A/ 4c#/ 4g/	.	.	8dd\
.	.	.	8cc#\J
*v	*v	*	*
*	*v	*v
=100	=100
!!linebreak:original
*^	*^
4r	2F\	2.aa/	8ee\L
.	.	.	24dd\L
.	.	.	24ee\
.	.	.	24dd\J
4A/ 4d/ 4a/	.	.	8cc#\
.	.	.	8dd\
*v	*v	*	*
4r	.	8ee\
.	.	8ff\J)
=101	=101	=101
4GG#/	(2.ee/	4.ee\
4E\ 4B\ 4d\	.	.
.	.	8dd\L
4E\ 4B\ 4d\	.	8ccn\
.	.	8b\J
=102	=102	=102
4AA/	2.ee/	4.dd\
4E\ 4c\	.	.
.	.	8cc\L
4E\ 4c\	.	8b\
.	.	8a\J
=103	=103	=103
4EE/	2.ee/	4.cc\
4E\ 4G#\ 4d\	.	.
.	.	8e\L
4E\ 4G#\ 4d\	.	8cc\
.	.	8b\J
=104	=104	=104
*^	*	*
4r	2AA\	4a/)	4a\
*	*	*v	*v
4E/ 4c/	.	4r
*v	*v	*
4r	4a^/
=105	=105
4BB/	(4a/
(8f\L	8g\L
8G\	8b\
8A\	8dd\
8G\J)	[8ff\J
=106	=106
4C/	4ff\] 4aa\
4G\ 4e\	4ee\) 4gg\
4G\ 4e\	(4ee\ 4gg\
=107	=107
!!linebreak:original
4GG/	(4g/)
(8D\L	8f#\L
8G\	8fn\
8A\	8ee\
8B\J)	[8dd\J
=108	=108
4C/	4f\ 4dd\]
4G\ 4c\	4e/) 4cc/
4A\ 4c\	(4e/ 4cc/
=109	=109
4EE/	(4f/)
8d\L	8e/L
8E\	8g#/
8F\	8b/
8E\J	[8dd/J
=110	=110
4AA/	4dd\] 4ff\
4E\ 4A\ 4c\	4cc\) 4ee\
4E\ 4A\ 4c\	(4cc\ 4ee\
=111	=111
4EE/	(4e/)
(8BB\L	8d#/L
8E\	8dn/
8F#\	8cc/
8G#\J)	[8b/J
=112	=112
4AA/	4d/ 4b/]
4E\ 4A\	4c/) 4a/
4D\ 4Fn\	4c^/ 4a^/
=113	=113
4BB/	(4B/ 4a/
(8f\L	8gn\L
8G\	8b\
8A\	8dd\
8G\J)	[8ff\J
=114	=114
!!pagebreak:original
4C/	4ff\] 4aa\
4G\ 4e\	4ee\) 4gg\
4G\ 4e\	(4ee\ 4gg\
=115	=115
4GG/	(4g/)
(8D\L	8f#\L
8G\	8fn\
8A\	8ee\
8B\J)	[8dd\J
=116	=116
4C/	4f\ 4dd\]
4G\ 4c\	4e/) 4cc/
4A\ 4c\	(4e/ 4cc/
=117	=117
4EE/	(4f/)
8d\L	8e/L
8E\	8g#/
8F\	8b/
8E\J	[8dd/J
=118	=118
4AA/	4dd\] 4ff\
4E\ 4A\ 4c\	4cc\) 4ee\
4E\ 4A\ 4c\	(4cc\ 4ee\
=119	=119
(4EE/	(4e/)
4BB/	8d#/L
.	8dn/
4G#\	8cc/
.	8b/J
=120	=120
4d\	8a\L
.	8g#\
4b\)	8ff\
.	8ee\
4r	8dd#\
.	8ddn\J)
=121||	=121||
!!linebreak:original
*k[f#c#g#]	*k[f#c#g#]
4AA/	(2.cc#\
4E\ 4c#\	.
4E\ 4Gn\ 4c#\	.
=122	=122
4D\	2b\
4F#\ 4d\	.
4F#\ 4B\ 4d\	4a/
=123	=123
*^	*
.	.	(32g#q/LLL
.	.	32aq/JJJ
4r	(2E\	4g#/)
2B/ 2d/	.	8f##/L
.	.	8g#/
.	4E#\)	8a/
.	.	8b/J
=124	=124	=124
4r	2.F#\	2.a/)
4A/ 4c#/	.	.
4A/ 4c#/	.	.
=125	=125	=125
4r	(2En\	(2.b\
4G#/ 4B/ 4e/	.	.
4r	4D\)	.
*v	*v	*
=126	=126
4C#/	2cc#\
4G#\ 4B\ 4e#\	.
4F#\ 4A\ 4f#\	4a/
=127	=127
*^	*
.	.	(32f#q/LLL
.	.	32g#q/JJJ
4r	2D\	4f#/)
4F#/ 4B/ 4d/	.	8e#/L
.	.	8f#/
*v	*v	*
4BB/	8een/
.	8dd/J
=128	=128
!!linebreak:original
*^	*
4r	2.E\	2b\
4G#/ 4d/ 4f#/	.	.
4G#/ 4d/ 4e/	.	4b#\)
*v	*v	*
=129	=129
4AA/	(2.cc#\
4E\ 4A\ 4c#\	.
4E\ 4A\ 4c#\	.
=130	=130
*^	*
4r	2.D\	2b\
4F#/ 4B/	.	.
4F#/ 4B/	.	4a/
=131	=131	=131
.	.	(32g#q/LLL
.	.	32aq/JJJ
4r	2.E\	4g#/)
4B/ 4d/	.	8f##/L
.	.	8g#/
4B/ 4d/	.	8a/
.	.	8b/J
=132	=132	=132
4r	(2Fn\	2.a/)
2A/ 2cn/	.	.
.	4D#\)	.
*v	*v	*
=133	=133
4E\	(8e/L
.	8a/
4c#\ 4a\	8b/
.	8cc#/
4r	8dd/
.	8ee/J
=134	=134
!!pagebreak:original
2.r	8ff#\L
.	8ddd\
.	8ccc#\
.	8ee\
.	8cc#\
.	8aa\J
=135	=135
4EE/	8ff#\L
.	8a\
*	*^
4E\ 4G#\ 4d\	8f#\	4.f#/
.	8dd\	.
4E\ 4G#\ 4d\	8cc#\	.
*	*v	*v
.	8e\J
=136	=136
2.r	2c#/) 2a/
.	(4cn/
=137	=137||
*k[]	*k[]
4AA/	2.cc\
4E\ 4A\ 4c\	.
4E\ 4A\ 4c\	.
=138	=138
4D\	2b-\
4F\ 4B-\ 4d\	.
4F\ 4B-\ 4d\	4a/
=139	=139
*^	*
.	.	(32g#q/LLL
.	.	32aq/JJJ
4r	2.E\	4g#/)
4Bn/ 4d/	.	8f##/L
.	.	8g#/
4B/ 4d/	.	8a/
.	.	8b/J
*v	*v	*
=140	=140
!!linebreak:original
*^	*
4r	2.F\	2.a/)
4A/ 4c/	.	.
4A/ 4c/	.	.
=141	=141	=141
4r	(2E\	(2.b\
4G#/ 4B/ 4e/	.	.
4r	4D\)	.
=142	=142	=142
4r	2.C\	2cc\
4E/ 4A/ 4e/	.	.
4E/ 4A/ 4e/	.	4a/
=143	=143	=143
.	.	(32fq/LLL
.	.	32gq/JJJ
4r	2.D\	4f/)
4F/ 4B-/ 4d/	.	8e/L
.	.	8f/
4F/ 4B-/ 4d/	.	8ee/
.	.	8dd/J
=144	=144	=144
4r	2.E\	2.b\)
4G#/ 4d/ 4f/	.	.
4G#/ 4d/ 4e/	.	.
*v	*v	*
=145	=145
4AA/	(2.cc\
4E\ 4A\ 4c\	.
4E\ 4A\ 4c\	.
=146	=146
*^	*
4r	2.D\	2b-\
4F/ 4B-/	.	.
4F/ 4B-/	.	4a/
*v	*v	*
=147	=147
!!linebreak:original
*^	*
.	.	(32g#q/LLL
.	.	32aq/JJJ
4r	2.E\	4g#/)
4Bn/ 4d/	.	8f##/L
.	.	8g#/
4B/ 4d/	.	8a/
.	.	8b/J
=148	=148	=148
4r	(2F\	2.a/)
2A/ 2c/	.	.
.	4D#\)	.
*v	*v	*
=149	=149
4E\	(8e/L
.	8a/
4c\ 4a\	8b/
.	8cc/
4r	8dd/
.	8ee/J
=150	=150
2.r	8ff\L
.	8ddd\
.	8ccc\
.	8ee\
.	8cc\
.	8aa\J
=151	=151
4EE/	8ff\L
.	8a\
*	*^
4E\ 4G#\ 4d\	8f\	4.f/
.	8dd\	.
4E\ 4G#\ 4d\	8cc\	.
*	*v	*v
.	8e\J
=152	=152
*^	*
4r	2AA\	4c/) 4a/
4E/ 4A/	.	4r
*v	*v	*
4r	[4c^/ [4e^/
=153	=153
!!pagebreak:original
*^	*
(2E/	[2.AA\	4c/] 4e/]
.	.	(4c/ 4e/
8D/L	.	4c/) 4a/
8E/J	.	.
=154	=154	=154
2F/	2.AA\_	4r
.	.	(4B/ 4d/
8G/L	.	4B/) 4a/
8F/J)	.	.
=155	=155	=155
(2E/	2.AA\_	4r
.	.	(4c/ 4e/
8D/L	.	4c/) 4a/
8E/J	.	.
=156	=156	=156
2F/	2.AA\]	4r
.	.	(4B/ 4d/
8G/L	.	4B/) 4a/
8F/J)	.	.
*v	*v	*
=157	=157
2.r	4r
.	(4c/ 4e/
.	4c/) 4a/
=158	=158
*^	*
2c/	[2.E\	4r
.	.	(4d#/ 4f#/
8B/L	.	4d#/) 4a/
8A/J	.	.
*v	*v	*
=159	=159
!!linebreak:original
*^	*
4B/	2.E\_	4r
8c/L	.	(4dn/ 4e/
8B/	.	.
8A#/	.	4d/) 4g#/
8B/J	.	.
=160	=160	=160
2e/	2E\]	4r
.	.	(4d/ 4g#/ 4cc/
4E/	4E\	4d/) 4g#/ 4b/
=161	=161	=161
(2E/	[2.AA\	4r
.	.	(4c/ 4e/
8D/L	.	4c/) 4a/
8E/J	.	.
=162	=162	=162
2F/	2.AA\_	4r
.	.	(4B/ 4d/
8G/L	.	4B/) 4a/
8F/J)	.	.
=163	=163	=163
(2E/	2.AA\_	4r
.	.	(4c/ 4e/
8D/L	.	4c/) 4a/
8E/J	.	.
=164	=164	=164
2F/	2.AA\]	4r
.	.	(4B/ 4d/
8G/L	.	4B/) 4a/
8F/J)	.	.
*v	*v	*
=165	=165
!!linebreak:original
2.r	4r
.	(4c/ 4e/
.	4c/) 4a/
=166	=166
*^	*
2c/	[2.E\	4r
.	.	(4d#/ 4f#/
8B/L	.	4d#/) 4a/
8A/J	.	.
=167	=167	=167
2B/	2.E\]	4r
.	.	(4dn/ 4e/
8c/L	.	4d/) 4g#/
8B/J	.	.
=168	=168	=168
2.A/	2.A\	4r
.	.	(4c/ 4e/
.	.	4c/) 4a/
*v	*v	*
=169	=169
(GGq/	.
(4A\)	4r
8G\L	(4B/ 4f/
8F\	.
8E\	4B/) 4f/ 4g/
8D\J	.
=170	=170
8C\L	4r
8D\	.
8E\	(4c/ 4g/
8F\	.
8F#\	4c/) 4e/ 4g/
8G\J	.
=171	=171
!!pagebreak:original
8A\L	4r
8G\	.
8F#\	(4B/ 4f/ 4g/
8G\	.
8A\	4f/) 4g/
8B\J	.
=172	=172
8c\L	4r
8d\	.
8c\	(4e/ 4g/
8B\	.
8c\	4e/) 4cc/
8d\J)	.
=173	=173
(4f\	4r
8e\L	(4g#/
8d\	.
8c\	4d/) 4e/ 4g#/
8B\J	.
=174	=174
8d\L	4r
8c\	.
8B\	(4c/ 4e/ 4a/
8A\	.
8G#\	4c/) 4e/ 4a/
8A\J	.
=175	=175
8B\L	4r
8A\	.
8Gn\	(4B/ 4d#/ 4a/
8F\	.
8E\	4B/) 4d#/ 4a/
8F\J	.
=176	=176
8G/L	4r
8F/	.
8E/	(4d#/ 4a/ 4b/
8F/	.
8GG/	4d#/) 4a/ 4b/
8FF/J)	.
=177	=177
!!linebreak:original
(8EE\L	4r
8BB\	.
8E\	(4e/ 4g#/ 4b/
8G#\	.
8B\	4g#/) 4b/
8e\J	.
=178	=178
4g#\	4r
8f#\L	(4b\
8e\	.
*	*^
8d#\	[4b/	4g#\
8c#\J	.	.
=179	=179	=179
8d#\L	4b/]	4r
8c#\	.	.
8B\	4b/	4a\
8F#\J	.	.
4BB/)	[4ff#/	4a\ 4b\
=180	=180	=180
(8d#\L	4ff#/]	4r
8c#\	.	.
8B\	4gg#/	4a\ 4b\
8F#\J	.	.
4BB/)	4dd#/	4a\ 4b\
=181	=181	=181
(8EE\L	4ff#/	4r
8BB\	.	.
8E\	2ee/)	4g#\ 4b\
8G#\	.	.
8B\	.	4g#\ 4b\
8e\J	.	.
*	*v	*v
=182	=182
!!linebreak:original
4g#\	4r
8f#\L	(4b\
8e\	.
*	*^
8d#\	[4b/	4g#\
8c#\J	.	.
=183	=183	=183
8d#\L	4b/]	4r
8c#\	.	.
8B\	4b/	4a\
8F#\J	.	.
4BB/)	[4ff#/	4a\ 4b\
=184	=184	=184
(8d#\L	4ff#/]	4r
8c#\	.	.
8B\	4gg#/	4a\ 4b\
8F#\J	.	.
4BB/)	4dd#/	4a\ 4b\
=185	=185	=185
(8EE\L	4ff#/	4r
8BB\	.	.
8E\	[2ee/	4g#\ 4b\
8G#\	.	.
8B\	.	4g#\ 4b\
8e\J	.	.
=186	=186	=186
4g#\	2.ee/])	4r
8e\L	.	4g#\ 4b\
8B\	.	.
8G#\	.	4g#\ 4b\
8E\J)	.	.
*	*v	*v
=187	=187
!!pagebreak:original
(8EE\L	4r
8BB\	.
8E\	4g#/ 4b/
8B\	.
8e\	(4g#/ 4b/
8b\J)	.
=188	=188
2.r	2ee\
.	[4e/)
=189	=189
*^	*
(2E/	[2.AA\	4e/]
.	.	(4c/ 4e/
8D/L	.	4c/) 4a/
8E/J	.	.
=190	=190	=190
2F/	2.AA\_	4r
.	.	(4B/ 4d/
8G/L	.	4B/) 4a/
8F/J)	.	.
=191	=191	=191
(2E/	2.AA\_	4r
.	.	(4c/ 4e/
8D/L	.	4c/) 4a/
8E/J	.	.
=192	=192	=192
2F/	2.AA\]	4r
.	.	(4B/ 4d/
8G/L	.	4B/) 4a/
8F/J)	.	.
*v	*v	*
=193	=193
!!linebreak:original
2.r	4r
.	(4c/ 4e/
.	4c/) 4a/
=194	=194
*^	*
2c/	[2.E\	4r
.	.	(4d#/ 4f#/
8B/L	.	4d#/) 4a/
8A/J	.	.
=195	=195	=195
4B/	2.E\_	4r
8c/L	.	(4dn/ 4e/
8B/	.	.
8A#/	.	4d/) 4g#/
8B/J	.	.
=196	=196	=196
2e/	2E\]	4r
.	.	(4d/ 4g#/ 4cc/
4E/	4E\	4d/) 4g#/ 4b/
=197	=197	=197
(2E/	[2.AA\	4r
.	.	(4c/ 4e/
8D/L	.	4c/) 4a/
8E/J	.	.
=198	=198	=198
2F/	2.AA\_	4r
.	.	(4B/ 4d/
8G/L	.	4B/) 4a/
8F/J)	.	.
*v	*v	*
=199	=199
!!linebreak:original
*^	*
(2E/	2.AA\_	4r
.	.	(4c/ 4e/
8D/L	.	4c/) 4a/
8E/J	.	.
=200	=200	=200
2F/	2.AA\]	4r
.	.	(4B/ 4d/
8G/L	.	4B/) 4a/
8F/J)	.	.
*v	*v	*
=201	=201
2.r	4r
.	(4c/ 4e/
.	4c/) 4a/
=202	=202
*^	*
2c/	[2.E\	4r
.	.	(4d#/ 4f#/
8B/L	.	4d#/) 4a/
8A/J	.	.
=203	=203	=203
2B/	2.E\]	4r
.	.	(4dn/ 4e/
8c/L	.	4d/) 4g#/
8B/J	.	.
*v	*v	*
=204	=204
2.r	4c/ 4a/
.	4r
.	4r
==	==
*-	*-
